X: 48
T:Tar Road to Sligo
R:Jig
Z:added by Alf Warnock
M:6/8
L:1/8
K:D
e|fdB Bcd|ecA BAG|FAA ABc|dcd efg|
fdB Bcd|ecA BAG|FAA Aag|[1 fdc d2e:|[2 fdc d2B||
Aff Aff|gfg efg|afd dcd|Bed cBA|
Aff Aff|gfg efg|afd bge|edc d2B|
Aff Aff|gfg efg|afd dcd|Bed cBA|
fdB gec|afd bge|a^ga b=ge|edc d2|]

